X: 1
T: RODNEY
S: MDT
O: Headington
P: A.(A2B2)4.A
Q:1/2=116
B: Morris Ring
Z: 2005 John Chambers <jc@trillian.mit.edu>
M: 2/2
L: 1/8
K: A
P: A
|: A2Bc d2cB | ABcd e2cd | efed c2A2 | BABc A2e2 :|
P: B
|: e2af g2e2 | e2af g2e2 | e2ag fedc | dfed c2B2 :|
